build/img/icon-fb.svg

<svg width="7" height="15" viewBox="0 0 7 15" fill="none" xmlns="http://www.w3.org/2000/svg">
<path d="M5.14372 3.29395H6.88355V0.723877H4.83834V0.733146C2.36021 0.820915 1.85231 2.21392 1.80755 3.677H1.80245V4.96037H0.11499V7.47724H1.80245V14.2238H4.34555V7.47724H6.42876L6.83118 4.96037H4.34638V4.18499C4.34638 3.69053 4.6754 3.29395 5.14372 3.29395Z"/>
</svg>

<svg width="7" height="15" fill="none" xmlns="http://www.w3.org/2000/svg"><path d="M5.144 3.294h1.74V.724H4.838v.01C2.36.82 1.852 2.213 1.808 3.676h-.006V4.96H.115v2.517h1.687v6.747h2.544V7.477h2.083L6.83 4.96H4.346v-.775c0-.494.33-.891.798-.891z"/></svg>
